assets/images/icons/src/neuter.svg

<?xml version="1.0" encoding="utf-8"?>
<!-- Generated by IcoMoon.io -->
<!DOCTYPE svg PUBLIC "-//W3C//DTD SVG 1.1//EN" "http://www.w3.org/Graphics/SVG/1.1/DTD/svg11.dtd">
<svg version="1.1" xmlns="http://www.w3.org/2000/svg" xmlns:xlink="http://www.w3.org/1999/xlink" width="9" height="14" viewBox="0 0 9 14">
<path fill="#444444" d="M9 4.5q0 1.727-1.152 3.004t-2.848 1.465v4.781q0 0.109-0.070 0.18t-0.18 0.070h-0.5q-0.109 0-0.18-0.070t-0.070-0.18v-4.781q-1.695-0.187-2.848-1.465t-1.152-3.004q0-0.914 0.355-1.746t0.961-1.438 1.438-0.961 1.746-0.355 1.746 0.355 1.438 0.961 0.961 1.438 0.355 1.746zM4.5 8q1.445 0 2.473-1.027t1.027-2.473-1.027-2.473-2.473-1.027-2.473 1.027-1.027 2.473 1.027 2.473 2.473 1.027z"></path>
</svg>

<svg xmlns="http://www.w3.org/2000/svg" width="9" height="14" viewBox="0 0 9 14"><path fill="#444" d="M9 4.5q0 1.727-1.152 3.004T5 8.969v4.781q0 .109-.07.18t-.18.07h-.5q-.109 0-.18-.07T4 13.75V8.969q-1.695-.187-2.848-1.465T0 4.5q0-.914.355-1.746t.961-1.438T2.754.355 4.5 0t1.746.355 1.438.961.961 1.438T9 4.5zM4.5 8q1.445 0 2.473-1.027T8 4.5 6.973 2.027 4.5 1 2.027 2.027 1 4.5t1.027 2.473T4.5 8z"/></svg>
